icons/patient_band.svg

<svg width="48" height="48" viewBox="0 0 48 48" fill="none" xmlns="http://www.w3.org/2000/svg">
<path fill-rule="evenodd" clip-rule="evenodd" d="M42 26.6665C42 26.9426 41.7761 27.1665 41.5 27.1665H37V29.1665H40.5C40.7761 29.1665 41 29.3904 41 29.6665V30.6665C41 30.9426 40.7761 31.1665 40.5 31.1665H32.0526V33.1665H37.367C34.5266 35.6832 30.0298 35.9922 26.7444 33.9924L21.5199 30.8123L20.4801 32.5207L25.7045 35.7008C29.7121 38.1402 35.2003 37.7918 38.7324 34.6287C39.2108 34.2003 39.7044 33.7229 40.2218 33.1665H40.5C41.8807 33.1665 43 32.0472 43 30.6665V29.6665C43 29.3539 42.9426 29.0547 42.8378 28.7788C43.5364 28.3355 44 27.5551 44 26.6665V25.6665C44 24.7779 43.5364 23.9975 42.8378 23.5542C42.9426 23.2783 43 22.9791 43 22.6665V21.6665C43 20.457 42.1411 19.4481 41 19.2165V18.4059C41 16.8393 39.7946 15.5364 38.2326 15.4149L35.0388 15.1665H33.7639C29.18 15.1665 24.6585 16.2292 20.5545 18.2712L21.4455 20.0618C25.2726 18.1575 29.4892 17.1665 33.7639 17.1665H34.9612L38.0775 17.4089C38.5982 17.4494 39 17.8837 39 18.4059V19.1665H37V21.1665H40.5C40.7761 21.1665 41 21.3904 41 21.6665V22.6665C41 22.9426 40.7761 23.1665 40.5 23.1665H37V25.1665H41.5C41.7761 25.1665 42 25.3904 42 25.6665V26.6665Z" fill="black"/>
<path fill-rule="evenodd" clip-rule="evenodd" d="M21 21.1665C19.8954 21.1665 19 20.2711 19 19.1665V11.1665C19 10.6142 18.5523 10.1665 18 10.1665C17.4477 10.1665 17 10.6142 17 11.1665V19.1665C17 20.2711 16.1046 21.1665 15 21.1665V30.1665C16.1046 30.1665 17 31.0619 17 32.1665V33.1665H19V32.1665C19 31.0619 19.8954 30.1665 21 30.1665V21.1665ZM21 32.1665C22.1046 32.1665 23 31.2711 23 30.1665V21.1665C23 20.0619 22.1046 19.1665 21 19.1665V11.1665C21 9.50965 19.6569 8.1665 18 8.1665C16.3431 8.1665 15 9.50965 15 11.1665V19.1665C13.8954 19.1665 13 20.0619 13 21.1665V30.1665C13 31.2711 13.8954 32.1665 15 32.1665V35.1665H21V32.1665Z" fill="black"/>
<path fill-rule="evenodd" clip-rule="evenodd" d="M19 22.1665H17V29.1665H19V22.1665Z" fill="black"/>
<path fill-rule="evenodd" clip-rule="evenodd" d="M20 18.1665H15V16.1665H20V18.1665Z" fill="black"/>
<path fill-rule="evenodd" clip-rule="evenodd" d="M6 20L15 20V22L6 22L6 20Z" fill="black"/>
<path fill-rule="evenodd" clip-rule="evenodd" d="M6 29H15V31H6L6 29Z" fill="black"/>
</svg>

<svg
  xmlns="http://www.w3.org/2000/svg"
  width="24"
  height="24"
  viewBox="0 0 24 24"
  fill="none"
  stroke="currentColor"
  stroke-width="2"
  stroke-linecap="round"
  stroke-linejoin="round"
>
  <path
    fill-rule="evenodd"
    d="M42 26.667a.5.5 0 0 1-.5.5H37v2h3.5a.5.5 0 0 1 .5.5v1a.5.5 0 0 1-.5.5h-8.447v2h5.314c-2.84 2.516-7.337 2.825-10.623.825l-5.224-3.18-1.04 1.709 5.224 3.18c4.008 2.44 9.496 2.09 13.028-1.072.479-.429.972-.906 1.49-1.462h.278a2.5 2.5 0 0 0 2.5-2.5v-1c0-.313-.057-.612-.162-.888A2.5 2.5 0 0 0 44 26.666v-1c0-.888-.464-1.669-1.162-2.112.105-.276.162-.575.162-.887v-1a2.5 2.5 0 0 0-2-2.45v-.811a3 3 0 0 0-2.767-2.991l-3.194-.248h-1.275a29.65 29.65 0 0 0-13.21 3.104l.892 1.79a27.65 27.65 0 0 1 12.318-2.895h1.197l3.117.243a1 1 0 0 1 .922.997v.76h-2v2h3.5a.5.5 0 0 1 .5.5v1a.5.5 0 0 1-.5.5H37v2h4.5a.5.5 0 0 1 .5.5z"
    clip-rule="evenodd"
  />
  <path
    fill-rule="evenodd"
    d="M21 21.167a2 2 0 0 1-2-2v-8a1 1 0 1 0-2 0v8a2 2 0 0 1-2 2v9a2 2 0 0 1 2 2v1h2v-1a2 2 0 0 1 2-2zm0 11a2 2 0 0 0 2-2v-9a2 2 0 0 0-2-2v-8a3 3 0 1 0-6 0v8a2 2 0 0 0-2 2v9a2 2 0 0 0 2 2v3h6z"
    clip-rule="evenodd"
  />
  <path fill-rule="evenodd" d="M19 22.167h-2v7h2z" clip-rule="evenodd" />
  <path fill-rule="evenodd" d="M20 18.167h-5v-2h5z" clip-rule="evenodd" />
  <path fill-rule="evenodd" d="M6 20h9v2H6z" clip-rule="evenodd" />
  <path fill-rule="evenodd" d="M6 29h9v2H6z" clip-rule="evenodd" />
</svg>
